lib/flags/m/NPL.svg

<svg xmlns="http://www.w3.org/2000/svg" fill="none" viewBox="0 0 20 15"><path fill="#fff" d="M0 0H20V15H0z"/><path fill="#C51918" stroke="#4857A1" d="M7.11834 7.93844L12.6718 14.5H0.5V0.977971L12.001 7.11542H7.5H6.42178L7.11834 7.93844Z"/><mask id="NPL_svg__a" width="14" height="15" x="0" y="0" mask-type="alpha" maskUnits="userSpaceOnUse"><path fill="#fff" stroke="#fff" d="M7.11834 7.93844L12.6718 14.5H0.5V0.977971L12.001 7.11542H7.5H6.42178L7.11834 7.93844Z"/></mask><g fill-rule="evenodd" clip-rule="evenodd" mask="url(#NPL_svg__a)"><path fill="#F7FCFF" d="M3.64352 12.5448 2.87779 13.5233 2.84244 12.2885 1.63881 12.637 2.34735 11.6176 1.16557 11.2029 2.34735 10.7882 1.63881 9.76879 2.84244 10.1173 2.87779 8.88247 3.64352 9.86098 4.40925 8.88247 4.4446 10.1173 5.64822 9.76879 4.93969 10.7882 6.12147 11.2029 4.93969 11.6176 5.64822 12.637 4.4446 12.2885 4.40925 13.5233 3.64352 12.5448zM3.625 5.23931 3.2251 5.75033 3.20664 5.10547 2.57805 5.28746 2.94808 4.75507 2.3309 4.53851 2.94808 4.32195 2.57805 3.78956 3.20664 3.97155 3.2251 3.32669 3.625 3.83771 4.0249 3.32669 4.04336 3.97155 4.67195 3.78956 4.30192 4.32195 4.9191 4.53851 4.30192 4.75507 4.67195 5.28746 4.04336 5.10547 4.0249 5.75033 3.625 5.23931z"/><path fill="#F9FAFA" d="M3.54064 5.08923C4.91068 5.09479 5.64115 4.30542 5.64115 4.30542C5.78565 5.20615 4.66995 5.80542 3.554 5.80542C2.43804 5.80542 1.76239 4.98853 1.34613 4.30542C1.34613 4.30542 2.1706 5.08367 3.54064 5.08923Z"/></g></svg>

<svg xmlns="http://www.w3.org/2000/svg" fill="none" viewBox="0 0 20 15"><path fill="#fff" d="M0 0h20v15H0z"/><path fill="#C51918" stroke="#4857A1" d="M7.118 7.938l5.554 6.562H.5V.978l11.501 6.137H6.422l.696.823z"/><mask id="NPL_svg__a" width="14" height="15" x="0" y="0" maskUnits="userSpaceOnUse"><path fill="#fff" stroke="#fff" d="M7.118 7.938l5.554 6.562H.5V.978l11.501 6.137H6.422l.696.823z"/></mask><g fill-rule="evenodd" clip-rule="evenodd" mask="url(#NPL_svg__a)"><path fill="#F7FCFF" d="M3.644 12.545l-.766.978-.036-1.234-1.203.348.708-1.02-1.181-.414 1.181-.415-.708-1.02 1.203.35.036-1.236.766.979.765-.979.036 1.235 1.203-.348-.708 1.02 1.181.414-1.181.415.708 1.019-1.203-.348-.036 1.234-.765-.978zM3.625 5.24l-.4.51-.018-.645-.629.182.37-.532-.617-.217.617-.216-.37-.533.629.182.018-.644.4.51.4-.51.018.644.629-.182-.37.533.617.216-.617.217.37.532-.629-.182-.018.645-.4-.51z"/><path fill="#F9FAFA" d="M3.54 5.09c1.37.005 2.101-.785 2.101-.785.145.901-.971 1.5-2.087 1.5s-1.792-.817-2.208-1.5c0 0 .825.779 2.195.784z"/></g></svg>
